X: 466
T: A Wee Scotch
R: jig
M: 6/8
K: Amajor
B|cAF EFA|dd/e/f eca|def e<ac|B>^AB c=AF|
A>Bc BAF|d2 f ecA|a>ec B^AB|cAG A2||
e|a>ec a>ec|def ecA|a>ec a2 c|B/c/dc B2 E|
A>Bc BAF|d>ef ecA|a<ec B^AB|cAG A2||

